X:1
T:Warsaw, 66.66.88
T:Warsaw, 66.66.88
T:Thomas Clark (1775-1859) 
T:Public Domain Courtesy of the Cyber Hymnal™
C:Thomas Clark (1775-1859)
Z:Public Domain
Z:Courtesy of the Cyber Hymnal™
%%score ( 1 2 ) ( 3 4 )
L:1/8
Q:1/4=140
M:2/2
K:D
V:1 treble 
V:2 treble 
V:3 bass 
V:4 bass 
V:1
 [Fd]4 [EA]3 [EG] | [DF]4 D4 | [EA]6 [DF]2 | (G2 A2) [DB]2 [Ec]2 x2 | [Dd]4 (e2 d2) | [Ec]6 A2 | %6
 [Fd]4 (c2 B2) | A4 [DB]4 | [CE]6 [DF]2 | (G2 B2) [DA]2 [EG]2 | [DF]4 [CE]4 | D6 [FA]2 | %12
 [EA]4 [CG]4 | [DF]6 [EA]2 | [Dd]4 [DB]4 | [CA]6 [EA]2 x2 | [Dd]4 [Ge]4 | (f2 d2) [FA]2 [EG]2 | %18
 [DF]4 [CE]4 | D4 |] %20
V:2
 x8 | x4 D4 | x8 | D4 x6 | x4 G4 | x8 | x4 G4 | (F2 E2) x4 | x8 | D4 x4 | x8 | D6 x2 | x8 | x8 | %14
 x8 | x10 | x8 | F4 x4 | x8 | D4 |] %20
V:3
 [D,A,]4 [C,A,]3 [C,A,] | [D,A,]4 [B,,B,]4 | [A,,C]6 [D,A,]2 | [G,B,]2 [F,A,]2 z2 x4 | %4
 [F,A,]4 [G,B,]4 | A,6 A,2 | [D,A,]4 [E,G,]4 | [F,A,]4 [G,D]4 | A,6 [D,A,]2 | %9
 (B,2 G,2) [F,A,]2 [G,B,]2 | A,4 [A,,G,]4 | [D,F,]6 [D,A,]2 | [C,A,]4 [A,,A,]4 | [D,A,]6 [C,E,]2 | %14
 [B,,F,]4 [E,^G,]4 | A,6 A,2 [G,A,]2 | [F,A,]4 (B,2 C2) | (D2 A,2) [F,A,]2 [G,B,]2 | %18
 A,4 (G,2 G,2) | [D,F,]4 |] %20
V:4
 x8 | x8 | x8 | x4 (G,4 E,2) | x8 | A,6 A,2 | x8 | x8 | A,6 x2 | G,4 x4 | A,4 x4 | x8 | x8 | x8 | %14
 x8 | A,,4 x6 | x4 E,4 | D,4 x4 | x4 A,,4 | x4 |] %20

